images/rari.svg

<svg height="250" viewBox="0 0 250 250" width="250" xmlns="http://www.w3.org/2000/svg" xmlns:xlink="http://www.w3.org/1999/xlink"><radialGradient id="a" cx="0" cy="0" gradientTransform="matrix(81.320496 128.428763 -134.336255 85.061093 58.464941 83.478808)" gradientUnits="userSpaceOnUse" r="1"><stop offset="0" stop-color="#0c50ff"/><stop offset=".557292" stop-color="#5b9dff"/><stop offset="1" stop-color="#ff74f1"/></radialGradient><path d="m125 0c69.035156 0 125 55.964844 125 125s-55.964844 125-125 125-125-55.964844-125-125 55.964844-125 125-125zm0 0" fill="url(#a)"/><path d="m164.585938 124.238281c6.5625-1.707031 12.402343-6.613281 12.402343-16.484375 0-16.429687-13.949219-20.253906-31.828125-20.253906h-71.203125v73.992188h29.96875v-25.113282h35.550781c5.476563 0 8.679688 2.171875 8.679688 7.542969v17.570313h29.96875v-18.5c0-10.074219-5.683594-16.429688-13.539062-18.753907zm-24.59375-7.800781h-36.066407v-7.234375h36.066407c3.929687 0 6.304687.515625 6.304687 3.617187 0 3.097657-2.375 3.617188-6.304687 3.617188zm0 0" fill="#fff"/></svg>

<svg xmlns="http://www.w3.org/2000/svg" xmlns:xlink="http://www.w3.org/1999/xlink" width="250px" height="250px" viewBox="0 0 250 250" version="1.1">
<defs>
<radialGradient id="radial0" gradientUnits="userSpaceOnUse" cx="0" cy="0" fx="0" fy="0" r="1" gradientTransform="matrix(81.320496,128.428763,-134.336255,85.061093,58.464941,83.478808)">
<stop offset="0" style="stop-color:rgb(4.705882%,31.37255%,100%);stop-opacity:1;"/>
<stop offset="0.557292" style="stop-color:rgb(35.686275%,61.56863%,100%);stop-opacity:1;"/>
<stop offset="1" style="stop-color:rgb(100%,45.490196%,94.509804%);stop-opacity:1;"/>
</radialGradient>
</defs>
<g id="surface1">
<path style=" stroke:none;fill-rule:nonzero;fill:url(#radial0);" d="M 125 0 C 194.035156 0 250 55.964844 250 125 C 250 194.035156 194.035156 250 125 250 C 55.964844 250 0 194.035156 0 125 C 0 55.964844 55.964844 0 125 0 Z M 125 0 "/>
<path style=" stroke:none;fill-rule:nonzero;fill:rgb(100%,100%,100%);fill-opacity:1;" d="M 164.585938 124.238281 C 171.148438 122.53125 176.988281 117.625 176.988281 107.753906 C 176.988281 91.324219 163.039062 87.5 145.160156 87.5 L 73.957031 87.5 L 73.957031 161.492188 L 103.925781 161.492188 L 103.925781 136.378906 L 139.476562 136.378906 C 144.953125 136.378906 148.15625 138.550781 148.15625 143.921875 L 148.15625 161.492188 L 178.125 161.492188 L 178.125 142.992188 C 178.125 132.917969 172.441406 126.5625 164.585938 124.238281 Z M 139.992188 116.4375 L 103.925781 116.4375 L 103.925781 109.203125 L 139.992188 109.203125 C 143.921875 109.203125 146.296875 109.71875 146.296875 112.820312 C 146.296875 115.917969 143.921875 116.4375 139.992188 116.4375 Z M 139.992188 116.4375 "/>
</g>
</svg>
